resources/svg/chat-quote-fill.svg

<svg fill="currentColor" viewBox="0 0 24 24" xmlns="http://www.w3.org/2000/svg"><path d="M21 3C21.5523 3 22 3.44772 22 4V18C22 18.5523 21.5523 19 21 19H6.455L2 22.5V4C2 3.44772 2.44772 3 3 3H21ZM10.5153 7.4116C8.72825 8.18684 7.5 9.75543 7.5 11.5052C7.5 12.5 7.77658 13.1137 8.29171 13.6605C8.61598 14.0048 9.12905 14.25 9.66558 14.25C10.6321 14.25 11.4156 13.4665 11.4156 12.5C11.4156 11.5795 10.7045 10.8389 9.80236 10.7553C9.64107 10.7403 9.47827 10.7431 9.32317 10.7645L9.32344 10.6729C9.32873 10.2322 9.4223 8.9333 10.9616 8.1004L10.5153 7.4116ZM15.5153 7.4116C13.7283 8.18684 12.5 9.75543 12.5 11.5052C12.5 12.5 12.7766 13.1137 13.2917 13.6605C13.616 14.0048 14.1291 14.25 14.6656 14.25C15.6321 14.25 16.4156 13.4665 16.4156 12.5C16.4156 11.5795 15.7045 10.8389 14.8024 10.7553C14.6411 10.7403 14.4783 10.7431 14.3232 10.7645L14.3234 10.6729C14.3287 10.2322 14.4223 8.9333 15.9616 8.1004L15.5153 7.4116Z"/></svg>

<svg xmlns="http://www.w3.org/2000/svg" viewBox="0 0 24 24" fill="currentColor">
    <g>
        <path fill="none" d="M0 0H24V24H0z"/>
        <path d="M21 3c.552 0 1 .448 1 1v14c0 .552-.448 1-1 1H6.455L2 22.5V4c0-.552.448-1 1-1h18zM10.962 8.1l-.447-.688C8.728 8.187 7.5 9.755 7.5 11.505c0 .995.277 1.609.792 2.156.324.344.837.589 1.374.589.966 0 1.75-.784 1.75-1.75 0-.92-.711-1.661-1.614-1.745-.16-.015-.324-.012-.479.01v-.092c.006-.422.092-1.633 1.454-2.466l.185-.107-.447-.688zm4.553-.688c-1.787.775-3.015 2.343-3.015 4.093 0 .995.277 1.609.792 2.156.324.344.837.589 1.374.589.966 0 1.75-.784 1.75-1.75 0-.92-.711-1.661-1.614-1.745-.16-.015-.324-.012-.479.01 0-.313-.029-1.762 1.639-2.665z"/>
    </g>
</svg>
